X:1960
T:Boy in the Gap, The
T:Boy in the Gaf, The
R:reel
H:See also #58
D:Chieftains 1.
Z:id:hn-reel-57
M:C|
K:Dmix
D2 (3FGA dedc|A2GE cEGE|1 D2(3FGA dedc|A2GE EFGE:|2 DEFA dedc|A2GE EDD2||
|:~f3g fed2|e2fd ed^cB|AB^cd e2cd|eaag eaag|
~f3g fedf|egfd ed^cB|AB^cd e2dB|1 A2GE EDD2:|2 A2GE EFGE||


